X:414
T:Lady Georgina Gordon
R:Reel
C:Robert "Red Rob" Mackintosh
B:The Athole Collection
M:C|
L:1/8
K:D Minor
a|f(ddA) FDdf|eccG ECce|f(ddA) FDAd|cAGE A(Dde)|f(ddA) FDdf|
e(ccG) ECcE|FDEG AFGB|Ad^ce d(DD)||a|fada bgaf|egcg acgc|
fada bgad|^ceAa f(dde)|fada bgaf|egcg acgc|dAeA fAgA|afge ~f(dd)||

